X: 305687
M: 2/4
L: 1/16
K: A
e2e2 eagf | e2e2 eagf | efed cdcB | AGAB ABcd |\
e2e2 eagf | e2e2 eagf | efed cdcB | A2A2A2 H|]
ga |\
bc'd'c' baga & z2 [G2C2] E2EF | bagf e2ga & GABA GFEF |\
bc'd'c' baga & GABA GABc | b2 e'4 ga &  [d2E2]z2 [d2E2]z2 |\
bc'd'c' baga & z2 [G2B,2] E2EF | bagf e2ga & GABA GFEF |\
bc'd'c' baga & GABA GABc | b4 e'2 & [d2E2]z2 "^D.C."[d2E2] |]
K: Am
cedc BdcB | dcBc Aagf | efed cdcB | dcBc A2AB |\
cedc BdcB | dcBc Afed | cBcA cBcA | e4 "^D.C."e4 |]


